layouts/icon-pack/weapon_halberd.svg

<?xml version="1.0" encoding="UTF-8"?>
<svg width="1200pt" height="1200pt" version="1.1" viewBox="0 0 1200 1200" xmlns="http://www.w3.org/2000/svg">
 <g fill="#fff">
  <path d="m729.89 602.34c-3.2344 3.2188-4.0703 8.1328-2.0781 12.238 1.9883 4.1016 6.3633 6.4922 10.891 5.9492 18.828-2.1328 37.777-2.9688 56.719-2.5078 24.246 0.67969 47.707-8.6406 64.875-25.781l151.01-149.27c68.953-68.25 112.05-158.62 118.2-254.95 2.2266-34.781-0.28125-71.32-10.852-106.97-1.6992-5.5898-6.1953-9.8828-11.855-11.32-5.6641-1.4375-11.664 0.1875-15.824 4.2891l-908.04 898.5-8.25-8.1797c-6.1758-6.082-14.5-9.4922-23.168-9.4922s-16.992 3.4102-23.168 9.4922c-6.1406 6.0508-9.5977 14.312-9.5977 22.934 0 8.6211 3.457 16.883 9.5977 22.934l63.281 62.648c6.1758 6.0938 14.504 9.5117 23.18 9.5117 8.6758 0 17.004-3.418 23.18-9.5117 6.1367-6.0469 9.5938-14.305 9.5938-22.922 0-8.6172-3.457-16.875-9.5938-22.922l-2.8594-2.7891 583.95-578.3c4.5977-4.5664 10.832-7.1055 17.312-7.043 6.4766 0.0625 12.664 2.7148 17.172 7.3672 4.5117 4.6562 6.9688 10.922 6.8281 17.398-0.14453 6.4805-2.875 12.633-7.5859 17.082z"/>
  <path d="m155.84 1116.2 5.0391-4.9688c2.2461-2.2031 3.5156-5.2188 3.5156-8.3672s-1.2695-6.1641-3.5156-8.3672l-54.422-53.883c-4.6875-4.6133-12.211-4.6133-16.898 0l-5.0391 4.9688c-9.4453 9.3125-14.766 22.02-14.766 35.285s5.3203 25.973 14.766 35.285c9.5039 9.3672 22.309 14.621 35.652 14.629 13.34 0.007812 26.152-5.2305 35.668-14.582z"/>
 </g>
</svg>

<?xml version="1.0" encoding="UTF-8" standalone="no"?>
<!DOCTYPE svg PUBLIC "-//W3C//DTD SVG 1.1//EN" "http://www.w3.org/Graphics/SVG/1.1/DTD/svg11.dtd">
<svg width="100%" height="100%" viewBox="0 0 512 512" version="1.1" xmlns="http://www.w3.org/2000/svg" xmlns:xlink="http://www.w3.org/1999/xlink" xml:space="preserve" xmlns:serif="http://www.serif.com/" style="fill-rule:evenodd;clip-rule:evenodd;stroke-linejoin:round;stroke-miterlimit:2;">
    <g transform="matrix(1,0,0,1,-69.754,-69.2145)">
        <g transform="matrix(0.482306,0,0,0.482306,36.1112,35.8319)">
            <path d="M729.89,602.34C726.656,605.559 725.82,610.473 727.812,614.578C729.8,618.68 734.175,621.07 738.703,620.527C757.531,618.394 776.48,617.558 795.422,618.019C819.668,618.699 843.129,609.379 860.297,592.238L1011.31,442.968C1080.26,374.718 1123.36,284.348 1129.51,188.018C1131.73,153.237 1129.23,116.698 1118.65,81.048C1116.96,75.459 1112.46,71.166 1106.8,69.728C1101.14,68.291 1095.14,69.916 1090.98,74.018L182.936,972.518L174.686,964.338C168.51,958.256 160.186,954.846 151.518,954.846C142.85,954.846 134.526,958.256 128.35,964.338C122.209,970.389 118.752,978.65 118.752,987.272C118.752,995.893 122.209,1004.15 128.35,1010.21L191.631,1072.85C197.807,1078.95 206.135,1082.37 214.811,1082.37C223.487,1082.37 231.815,1078.95 237.991,1072.85C244.128,1066.81 247.585,1058.55 247.585,1049.93C247.585,1041.32 244.128,1033.06 237.991,1027.01L235.131,1024.22L819.082,445.921C823.679,441.354 829.914,438.815 836.394,438.878C842.87,438.94 849.058,441.593 853.566,446.245C858.077,450.901 860.534,457.167 860.394,463.643C860.249,470.123 857.519,476.276 852.808,480.725L729.89,602.34Z" style="fill:white;fill-rule:nonzero;"/>
            <path d="M155.84,1116.2L160.879,1111.23C163.125,1109.03 164.395,1106.01 164.395,1102.86C164.395,1099.72 163.125,1096.7 160.879,1094.5L106.457,1040.61C101.77,1036 94.246,1036 89.559,1040.61L84.52,1045.58C75.075,1054.89 69.754,1067.6 69.754,1080.87C69.754,1094.13 75.074,1106.84 84.52,1116.15C94.024,1125.52 106.829,1130.77 120.172,1130.78C133.512,1130.79 146.324,1125.55 155.84,1116.2L155.84,1116.2Z" style="fill:white;fill-rule:nonzero;"/>
        </g>
    </g>
</svg>
